X:1
T:Pilesgrove, LM
T:Pilesgrove, LM
T:Nahum Mitchell, 1812
T:Public Domain Courtesy of the Cyber Hymnal™
C:Nahum Mitchell, 1812
Z:Public Domain
Z:Courtesy of the Cyber Hymnal™
%%score ( 1 2 ) ( 3 4 )
L:1/8
Q:1/4=115
M:3/4
K:G
V:1 treble 
V:2 treble 
V:3 bass 
V:4 bass 
V:1
 [DG]2 | [DB]4 [Fd]2 | [Gd]4 ([DB][EA]) | [DG]4 [DF]2 | !fermata![DG]4 [DB]2 | [Dd]4 (cB) | %6
 [FA]4 [EG]2 | d4 [G^c]2 | !fermata![Fd]4 [Ad]2 | [Gd]4 (B>A) | [DG]4 D2 | [DG]4 [GB]2 | %12
 !fermata![FA]4 [DG]2 | G4 [GB]2 | ([Bd]>[ce]) [Bd]2 [Ac]2 | [GB]4 [FA]2 | !fermata!G4 |] %17
V:2
 x2 | x6 | x6 | x6 | x6 | x4 G2 | x6 | (D>E F2) x2 | x6 | x4 D2 | x4 D2 | x6 | x6 | (D>E D2) x2 | %14
 x6 | x6 | G4 |] %17
V:3
 [G,B,]2 | [G,B,]4 [D,A,]2 | [G,B,]4 ([G,D][C,C]) | [D,B,]4 [D,A,]2 | !fermata![G,,B,]4 [G,D]2 | %5
 [G,B,]4 (ED) | D3 C [E,B,]2 | ([F,A,]>[G,B,] A,2) [A,,A,]2 | !fermata![D,A,]4 [F,A,]2 | %9
 [G,B,]4 ([G,B,]>[A,C]) | [B,D]4 [A,C]2 | [G,B,]4 [G,,D]2 | !fermata![D,D]4 [G,B,]2 | %13
 (B,>C B,2) [G,D]2 | [G,G]4 [C,E]2 | [D,D]4 [D,C]2 | !fermata![G,,B,]4 |] %17
V:4
 x2 | x6 | x6 | x6 | x6 | x4 G,2 | D,4 x2 | x2 A,2 x2 | x6 | x6 | x6 | x6 | x6 | G,4 x2 | x6 | x6 | %16
 x4 |] %17

